X:125
T:La Bastrangue                                                                                     
M:4/4                                                                                               
L:1/8                                                                                               
K:G                                                                                                 
d2 dd d2 g2|d3 c B2 A2|G3 A B2 (d2|d)c Bc Ad|                                                       
d2 dd d2 g2|d3 c B2 G2|A2 Bc B2 A2|1 GBdG BDGB :|2 G2 ">"[e2A2] z4||                                
K:D                                                                                                 
f2 ff f2 gf|e2 c2 d3 d|c2 d2 e2 fe|d2 e2 f2 d2|                                                     
f2 ff f2 gf|e2 c2 d2 A2|g3 f e2 d2|B2 c2 d2 A2 :|                                                   
d2 fd ad fd|=c2 ec gc ec|d2 fd ad fd|bg ec dc BA|                                                   
d2 fd ad fd|=c2 ec gc ec|d2 fd ad fa|bg ec d2 (3ABc :|
